X:4277
L:1/8
M:6/8
K:G
 d2 d d2 c | B2 B B2 A | G2 G AGA | B2 B B2 c | d2 d d2 c | B2 B B2 A | G2 G AGA | G3 G3 :: 
 b2 b bag | a2 d def | g2 g gfe | f2 B Bcd | e2 e edc | d2 G GAB | cdc ABA | A3 A3 :| B3 AGA | 
 BcB AGA | BcB AGA | BcB AGA | BcB A3 | a2 a a2 g | f2 f f2 e | d2 d ede | d2 d2 G/A/B/c/ ||

